X: 561
T: The Sysadmin's Despairage
C: James Peeples
M: 3/4
L: 1/8
K: D
R: dirge
N:Posted to the woodenflute mailing list, August 2002
N: Water is not the true source of life; backups are.
N:Without them, all life stops.
(E4E)F | G6 | (A4A)G | .F(DD4) | E6 || (E4E)F | G6 |
(A4A)G | .F(DD4) | A(BB4) ||
B4(3dBG | .A(ee4) | (d4 (3d)e.g | a6 || {g}a4 (3bae | .f(dd4) | d4c-d | B6 ||
B4(3dBG | .A(ee4) | (d4 (3d)e.g | a6 || {g}a4 (3bae | .f(dd4) | d4 B-d | e6 ||
<end>
<start>
